!!!!SEGMENT: Fsc2006-Super_flumina_babilonis--Medici_Codex.krn
!!!id: Fsc2006
!!!AGN: Motet
!!!SCT: Lowinsky (1968)
!!!voices: 5
!!!COM: Costanzo Festa
!!!OTL: Super flumina babilonis (Medici Codex)
**kern	**kern	**kern	**kern	**kern
*part5	*part4	*part3	*part2	*part1
*staff5	*staff4	*staff3	*staff2	*staff1
*I"Bassus	*I"Tenor II	*I"Tenor I	*I"Altus	*I"Superius
*I'B	*I'T. II	*I'T. I	*I'A	*I'S
*clefF4	*clefGv2	*clefGv2	*clefGv2	*clefG2
*k[b-e-a-]	*k[b-e-]	*k[b-e-]	*k[b-]	*k[b-e-]
*E-:	*B-:	*B-:	*F:	*B-:
*M2/1	*M2/1	*M2/1	*M2/1	*M2/1
*met(C)	*met(C)	*met(C)	*met(C)	*met(C)
!!section: Prima pars: Super flumina babilonis
!!!OMD: Prima pars: Super flumina babilonis
=1	=1	=1	=1	=1
0r	1r	0r	0r	0e-y
.	[1A-X	.	.	.
=2	=2	=2	=2	=2
0r	1A-]	0r	0r	1f
.	1B-y	.	.	[1g
=3	=3	=3	=3	=3
0r	1.c	0r	0r	2g]
.	.	.	.	2g
.	.	.	.	1g
.	2c	.	.	.
=4	=4	=4	=4	=4
0AA-y	1c	0r	0r	1.a-X
.	2c	.	.	.
.	2c	.	.	2g
=5	=5	=5	=5	=5
1BB-y	1d-i	0r	0r	1f
[1C	[1c	.	.	[1e-y
=6	=6	=6	=6	=6
2C]	0c]	1r	0r	1e-]
2C	.	.	.	.
1C	.	[1E-y	.	2.e-y
.	.	.	.	4f
=7	=7	=7	=7	=7
2C	2r	1E-]	0r	2g
2C	1c	.	.	1a-i
1D-i	.	1F	.	.
.	2B-y	.	.	4g
.	.	.	.	4f
=8	=8	=8	=8	=8
0C	0c	1.G	0r	0e-y
.	.	2G	.	.
=9	=9	=9	=9	=9
0r	1B-y	1G	0r	1r
.	1r	[1A-X	.	[1e-y
=10	=10	=10	=10	=10
0r	0A-X	2A-]	0r	1e-]
.	.	2G	.	.
.	.	1F	.	1f
=11	=11	=11	=11	=11
0r	1B-y	1E-y	0r	1.g
.	[1c	1C	.	.
.	.	.	.	2g
=12	=12	=12	=12	=12
0r	2c]	1r	0r	1g
.	2c	.	.	.
.	1c	1F	.	1a
=13	=13	=13	=13	=13
1r	1B-y	1G	[0d	1.b-y
1BB-y	[1f	[1B-y	.	.
.	.	.	.	2b-y
=14	=14	=14	=14	=14
1BB-y	1f]	2B-]	0d]	0b-y
.	.	2B-y	.	.
1BB-y	1f	1B-y	.	.
=15	=15	=15	=15	=15
1C	[0e-y	1G	[0c	1r
[1AA-y	.	[1A-X	.	(1cc
=16	=16	=16	=16	=16
1AA-]	0e-]	1A-]	0c]	1cc)
1C	.	1G	.	1g
=17	=17	=17	=17	=17
[0GG	1r	1G	[0B-y	1.b-y
.	[1d	1r	.	.
.	.	.	.	2b-y
=18	=18	=18	=18	=18
1GG]	1d]	1G	0B-]	0b-y
1BB-y	[1d	1D	.	.
=19	=19	=19	=19	=19
[0FF	2d]	1.F	[0A	1r
.	2c	.	.	.
.	1c	.	.	[1f
.	.	2F	.	.
=20	=20	=20	=20	=20
0FF]	1r	1F	0A]	1f]
.	1F	1r	.	1c
=21	=21	=21	=21	=21
1r	1C	1G	[0c	1.e-y
[1AA-y	[1E-y	[1A-X	.	.
.	.	.	.	2e-y
=22	=22	=22	=22	=22
1AA-]	2E-]	1A-]	0c_	[0e-y
.	2E-y	.	.	.
1AA-y	[1E-y	1A-i	.	.
=23	=23	=23	=23	=23
1.C	1E-]	[0G	0c_	0e-]
.	1r	.	.	.
2C	.	.	.	.
=24	=24	=24	=24	=24
1C	1e-y	0G]	0c]	1r
[1C	[1e-y	.	.	[1g
=25	=25	=25	=25	=25
1C]	2e-]	1.E-y	[0c	1g]
.	2e-y	.	.	.
[1AA-y	[1e-y	.	.	[1a-X
.	.	2E-y	.	.
=26	=26	=26	=26	=26
1AA-]	1e-]	1C	0c]	1a-]
1FF	2r	1F	.	1a-i
.	[2f	.	.	.
=27	=27	=27	=27	=27
1C	2f]	1C	[0c	1g
.	2e-y	.	.	.
1C	1e-y	1G	.	2r
.	.	.	.	2g
=28	=28	=28	=28	=28
2C	1e-y	2G	0c]	2g
2C	.	2G	.	2g
1F	1f	1F	.	1a
=29	=29	=29	=29	=29
[0BB-y	0f	1B-y	[0d	[0b-y
.	.	1r	.	.
=30	=30	=30	=30	=30
0BB-]	1r	1.B-y	0d_	0b-]
.	[1B-y	.	.	.
.	.	2A	.	.
=31	=31	=31	=31	=31
0r	2B-]	2G	0d_	0r
.	2A	2F	.	.
.	1G	[1B-y	.	.
=32	=32	=32	=32	=32
1.BB-y	1F	2B-]	0d]	0r
.	.	2A	.	.
.	[1B-y	2G	.	.
2AA-y	.	[2F	.	.
=33	=33	=33	=33	=33
1GG	1B-]	2F]	0r	1r
.	.	2Eni	.	.
1FF	1A	[1F	.	[1f
=34	=34	=34	=34	=34
0BB-y	1r	1F]	0r	2f]
.	.	.	.	2e-y
.	[1f	1r	.	1d
=35	=35	=35	=35	=35
1FF	2f]	1.F	0r	1c
.	2e-y	.	.	.
1r	2d	.	.	(1f
.	[2c	2E-y	.	.
=36	=36	=36	=36	=36
0r	2c]	1D	0r	1f)
.	2Bni	.	.	.
.	1c	1C	.	[1e-y
=37	=37	=37	=37	=37
1r	1A	0F	0r	2e-]
.	.	.	.	4d
.	.	.	.	4c
1BB-y	1B-y	.	.	1d
=38	=38	=38	=38	=38
1.C	2G	0E-y	0r	2.c
.	2.c	.	.	.
.	.	.	.	4d
.	.	.	.	4e-y
.	4d	.	.	4f
2C	[2e-y	.	.	[2g
=39	=39	=39	=39	=39
1C	4e-]	1r	0r	2g]
.	4d	.	.	.
.	1c	.	.	1a-i
1D	.	1F	.	.
.	2B-y	.	.	4g
.	.	.	.	4f
=40	=40	=40	=40	=40
0C	1.c	1.G	0r	1.e-y
.	4B-y	2G	.	4d
.	4A	.	.	4c
=41	=41	=41	=41	=41
0r	2B-y	1G	0r	2d
.	2.e-y	.	.	2B-y
.	.	1A-X	.	1c
.	4d	.	.	.
.	(2c	.	.	.
=42	=42	=42	=42	=42
1GG	2c)	0G	0r	1d
.	2Bni	.	.	.
[1C	[1c	.	.	[1e-y
=43	=43	=43	=43	=43
2C]	1c]	1r	0r	1e-]
2C	.	.	.	.
1BB-y	1r	1D	.	1d
=44	=44	=44	=44	=44
1.C	1G	1.G	0r	0r
.	[1c	.	.	.
2BB-y	.	2G	.	.
=45	=45	=45	=45	=45
1AA-y	2c]	1F	0r	1r
.	2c	.	.	.
1GG	[1B-y	[1G	.	1d
=46	=46	=46	=46	=46
0r	2B-]	2G]	0r	1.g
.	2A	2F	.	.
.	2B-y	1E-y	.	.
.	2c	.	.	2g
=47	=47	=47	=47	=47
0r	1A	1D	0r	1f
.	1G	1r	.	[1g
=48	=48	=48	=48	=48
1r	1c	0r	0r	2g]
.	.	.	.	2f
1C	[1G	.	.	1e-y
=49	=49	=49	=49	=49
1.GG	2G]	0r	[0B-y	0d
.	2G	.	.	.
.	2.B-y	.	.	.
2GG	.	.	.	.
.	4A	.	.	.
=50	=50	=50	=50	=50
1BB-y	4G	1r	0B-]	1r
.	4F	.	.	.
.	1F	.	.	.
1GG	.	1G	.	1g
.	2Eni	.	.	.
=51	=51	=51	=51	=51
0FF	2.F	1.C	[0A	0a
.	4G	.	.	.
.	4A	.	.	.
.	4B-y	.	.	.
.	[2c	2C	.	.
=52	=52	=52	=52	=52
0r	2c]	1F	0A]	1a
.	1F	.	.	.
.	.	1D	.	2.f
.	[2f	.	.	.
.	.	.	.	4g
=53	=53	=53	=53	=53
0r	2f]	0C	0c	2a
.	4e-y	.	.	2b-y
.	4d	.	.	.
.	1e-y	.	.	1g
=54	=54	=54	=54	=54
0r	0d	0D	0A	0f
=55	=55	=55	=55	=55
0AA-y	0c	1r	0A	0r
.	.	1c	.	.
=56	=56	=56	=56	=56
1C	0r	2c	0G	1e-y
.	.	2c	.	.
1C	.	1G	.	2e-y
.	.	.	.	2e-y
=57	=57	=57	=57	=57
0D	0A	0d	0F	0f
=58	=58	=58	=58	=58
0C	1c	0r	0G	1e-y
.	1c	.	.	2c
.	.	.	.	[2cc
=59	=59	=59	=59	=59
1r	0d	1r	[0G	2cc]
.	.	.	.	4b-y
.	.	.	.	4a
1GG	.	1B-y	.	1b-y
=60	=60	=60	=60	=60
1.C	1c	1.c	0G]	2r
.	.	.	.	2e-y
.	2r	.	.	1e-y
2C	2c	2c	.	.
=	=	=	=	=
*	*	*	*M2/1	*
*	*	*	*met(C2)	*
1C	2c	1G	0r	1e-y
.	2c	.	.	.
[1BB-y	1d	[1B-y	.	1f
=61	=61	=61	=61	=61
1BB-]	1d	1B-]	0r	1f
1BB-y	1B-y	1F	.	1d
=62	=62	=62	=62	=62
1.FF	1.c	1.A-X	0r	1.f
2GG	2B-y	4G	.	4e-y
.	.	4F	.	4d
=63	=63	=63	=63	=63
0AA-y	0A-X	0E-y	0r	0c
=64	=64	=64	=64	=64
1r	1r	1r	0r	1r
[1GG	[1B-y	[1G	.	[1d
=65	=65	=65	=65	=65
2GG]	2B-]	2G]	0r	2d]
2GG	2B-y	2G	.	2d
[1GG	[1B-y	[1G	.	[1d
=66	=66	=66	=66	=66
1GG]	1B-]	1G]	0d	1d]
1BB-y	1B-y	1F	.	1r
=67	=67	=67	=67	=67
1C	1.G	1E-y	0c	1.g
1C	.	[1E-y	.	.
.	2G	.	.	2g
=68	=68	=68	=68	=68
0GG	0G	2E-]	0B-y	1g
.	.	2D	.	.
.	.	2.D	.	1b-y
.	.	8CL	.	.
.	.	8BB-yJ	.	.
=69	=69	=69	=69	=69
0r	1r	1F	0A	1cc
.	[1c	1r	.	1cc
=70	=70	=70	=70	=70
0C	2c]	1r	[0c	1g
.	2d	.	.	.
.	1e-y	1G	.	1r
=71	=71	=71	=71	=71
1C	1e-y	1G	0c]	1.cc
[1F	1f	2.A	.	.
.	.	.	.	2b-y
.	.	4G	.	.
=72	=72	=72	=72	=72
2F]	1c	2F	0c	2a
2Eni	.	2G	.	2g
1F	1r	1A	.	[1f
=73	=73	=73	=73	=73
0C	1r	1G	0c	2f]
.	.	.	.	4eni
.	.	.	.	4d
.	1G	1r	.	1eni
=74	=74	=74	=74	=74
0BB-y	1B-y	1D	[0d	1f
.	2B-y	2F	.	1f
.	[2B-y	2F	.	.
=75	=75	=75	=75	=75
1BB-y	2B-]	1D	0d]	2f
.	1B-y	.	.	2f
2BB-y	.	2r	.	1f
2BB-y	2B-y	[2F	.	.
=76	=76	=76	=76	=76
2BB-y	0d	2F]	0r	2r
2BB-y	.	2F	.	1f
2BB-y	.	1B-y	.	.
2BB-y	.	.	.	2f
=77	=77	=77	=77	=77
1D	1d	1A	0r	1f
1GG	1d	1B-y	.	1g
=78	=78	=78	=78	=78
0C	0e-y	0c	0r	2.g
.	.	.	.	4f
.	.	.	.	2g
.	.	.	.	2a
=79	=79	=79	=79	=79
0D	2d	2A	0r	2f
.	2f	2d	.	2a
.	2f	2d	.	2a
.	2f	2d	.	2b-y
=80	=80	=80	=80	=80
0r	2.g	2.e-y	0r	2.cc
.	4f	4d	.	4b-y
.	2e-y	2c	.	2a
.	2d	2B-y	.	[2g
=81	=81	=81	=81	=81
0r	0D	0A	0r	2g]
.	.	.	.	4f
.	.	.	.	4e-y
.	.	.	.	1f
=82	=82	=82	=82	=82
1C	1E-y	1G	0r	0r
2C	2E-y	2G	.	.
2C	2E-y	2A	.	.
=83	=83	=83	=83	=83
2.D	2.F	2.B-y	0r	0r
4C	4E-y	4A	.	.
2BB-y	2D	2G	.	.
2AA-y	2C	2F	.	.
=84	=84	=84	=84	=84
0GG	0D	0G	0B-y	1b-y
.	.	.	.	1b-y
=85	=85	=85	=85	=85
1r	1r	1r	0A	1.cc
[1FF	2r	1c	.	.
.	[2F	.	.	2cc
=86	=86	=86	=86	=86
1FF]	2F]	1A	1c	1cc
.	2F	.	.	.
1FF	2F	[1c	1A	1cc
.	2F	.	.	.
=87	=87	=87	=87	=87
1FF	2F	2c]	1A	1cc
.	2F	2d	.	.
1C	1E-y	1e-y	1G	1cc
=88	=88	=88	=88	=88
1D	1F	0d	1F	1a
1GG	1D	.	1G	1b-y
=89	=89	=89	=89	=89
1.C	2.E-y	1c	0G	1cc
.	4D	.	.	.
.	4E-y	1r	.	1r
.	4F	.	.	.
2BB-y	[2G	.	.	.
=	=	=	=	=
*	*	*	*M2/1	*
*	*	*	*met(C)	*
1AA-y	2G]	1c	0A	1.cc
.	4F#i	.	.	.
.	4Eni	.	.	.
1AA-y	2F#i	2c	.	.
.	2Eni	2c	.	2cc
=90	=90	=90	=90	=90
0GG	0G	[0d	0B-y	2.b-y
.	.	.	.	4a
.	.	.	.	4g
.	.	.	.	4f
.	.	.	.	[2g
=91	=91	=91	=91	=91
1.D	1D	1d]	0A	2g]
.	.	.	.	4f#i
.	.	.	.	4eni
.	1d	1r	.	1f#i
2D	.	.	.	.
=92	=92	=92	=92	=92
1E-y	2B-y	0r	0G	1.g
.	1e-y	.	.	.
[1C	.	.	.	.
.	2d	.	.	2f
=93	=93	=93	=93	=93
1C]	1c	2r	0G	1e-y
.	.	1G	.	.
[1GG	1B-y	.	.	1d
.	.	2G	.	.
=94	=94	=94	=94	=94
1GG]	1d	1.B-y	[0Gl	0g
[1C	[1e-y	.	.	.
.	.	[2c	.	.
=95	=95	=95	=95	=95
2C]	2e-]	1c]	0G_	[0gl
2C	2e-y	.	.	.
1E-y	1e-y	1B-y	.	.
=96	=96	=96	=96	=96
0C	0e-y	2r	0G_	0g_
.	.	2c	.	.
.	.	2c	.	.
.	.	2c	.	.
=97	=97	=97	=97	=97
0GG	1d	0B-y	0G_	0g_
.	1D	.	.	.
=98	=98	=98	=98	=98
1.EE-y	0E-y	[0B-yl	0G_	0g_
2FF	.	.	.	.
=99	=99	=99	=99	=99
00GGl	00Dl	00B-]	00G]	00g]
==	==	==	==	==
*-	*-	*-	*-	*-
!!!system-decoration: [*]
!!!RDF**kern: i = editorial accidental
!!!RDF**kern: l = terminal long
!!!ENC: Benjamin Ory
!!!END: 2022/5/5
!!!EED: Benjamin Ory
!!!EEV: 2022/05/05
!!!YEC: Copyright 2022 Benjamin Ory, All Rights Reserved
!!!ONB: Translated from MusicXML on 2022/05/05
